X:1
T:Jesus Is My Savior
T:Jesus Is My Savior
T:Robert Lowry
T:RobertLowry, 1878
T:Public Domain Courtesy of the Cyber Hymnal™
C:Robert Lowry
Z:Public Domain
Z:Courtesy of the Cyber Hymnal™
%%score 1 ( 2 3 )
L:1/8
Q:1/4=110
M:4/4
K:Bb
V:1 treble 
V:2 bass 
V:3 bass 
V:1
 ([DB][Ec]) | [Fd]2 [Fd]2 [Ge]2 [Fd]2 | [Ec]2 [EB]2 [EG]4 | [EA]2 [EA]2 [EG]2 [EF]2 | %4
w: 1.~My *|soul is hap- py|all day long—|Je- sus is my|
w: 2.~My *|hea- vy load of|sin is gone—|Je- sus is my|
w: 3.~I *|heard the voice of|mer- cy call—|Je- sus is my|
w: 4.~Now *|will I tell it|all a- round—|Je- sus is my|
 [DF]4 [DB]2 ([DB][Ec]) | [Fd]2 [Fd]2 [Ge]2 [Fd]2 | [Ec]2 [EB]2 [EG]4 | [DF]2 [FB]2 [EB]2 [EA]2 | %8
w: Sav- ior; And *|all my life is|full of song—|Je- sus died for|
w: Sav- ior; At *|His dear cross I|laid it down—|Je- sus died for|
w: Sav- ior; I *|sim- ply trust- ed,|that was all—|Je- sus died for|
w: Sav- ior; How *|sweet a bless- ing|I have found—|Je- sus died for|
 [DB]6 ||"^Refrain" [DB]>[Ec] | [Fd]4 [DB]2 [Fc]>[Fd] | [Fe]4 [Fc]2 [Fc]>[Fd] | %12
w: me.||||
w: me.||||
w: me.||||
w: me.||||
 [Fe]2 [Fd]2 [Ec]2 [DB]2 | [EA]2 [DB]2 [Fc]2 [FB]>[Fc] | [Fd]4 [DB]2 [FB]>[FA] | %15
w: |||
w: |||
w: |||
w: |||
 [EG]4 !fermata![Ge]2 [Gc]>[Gc] | [FB]2 [FB]2 [FA]2 [Fc]2 | [FB]6 |] %18
w: |||
w: |||
w: |||
w: |||
V:2
 [B,,B,]2 | [B,,B,]2 [B,,B,]2 [B,,B,]2 [B,,B,]2 | [E,G,]2 [E,G,]2 [E,B,]4 | %3
w: ~|~ ~ ~ ~|~ ~ ~|
 F,2 [F,C]2 [F,B,]2 [F,A,]2 | [B,,B,]4 [B,,F,]2 [B,,B,]2 | [B,,B,]2 [B,,B,]2 [B,,B,]2 [B,,B,]2 | %6
w: ~ ~ ~ ~|~ ~ ~|~ ~ ~ ~|
 [E,G,]2 [E,G,]2 [E,B,]4 | [F,B,]2 [F,D]2 [F,C]2 [F,C]2 | [B,,B,]6 || [B,,B,]>[B,,B,] | %10
w: ~ ~ ~|~ ~ ~ ~|~|Hal- le-|
 [B,,B,]4 [B,,B,]2 [F,A,]>[F,B,] | [F,C]4 [F,A,]2 [F,A,]>[F,B,] | [F,C]2 [F,B,]2 [F,A,]2 [F,B,]2 | %13
w: lu- jah! Hal- le-|lu- jah! To the|lov- ing Lamb for|
 [F,C]2 [F,B,]2 A,2 [D,B,]>[D,B,] | [B,,B,]4 [B,,F,]2 [D,B,]>[D,B,] | %15
w: sin- ners slain; Hal- le-|lu- jah! Hal- le-|
 [E,B,]4 !fermata![E,B,]2 [E,E]>[E,E] | [F,D]2 [F,D]2 [F,C]2 [F,E]2 | [B,,D]6 |] %18
w: lu- jah! To the|Lamb who lives a-|gain.|
V:3
 x2 | x8 | x8 | F,2 x6 | x8 | x8 | x8 | x8 | x6 || x2 | x8 | x8 | x8 | x4 (F,E,) x2 | x8 | x8 | %16
 x8 | x6 |] %18

